X: 27183
T: Miss Monaghan
R: reel
M: 4/4
K: Gmajor
|:G2 (3BAG Bddg|e2 ed Bdef|g2 ge dega|baga baa2|
G2 (3BAG Bddg|e2 ed Bdef|g2 ge dege|dBAc BGG2:|
Bdde dBGB|c2 Bc AGEF|G2 GE DEGA|BAGA BAA2|
Bdde dBGB|c2 BG AGEF|G2 GE DEGe|dBAc BGG2:|

